!!!SOCIAL_FUNCTION:	songs of games played in a ceremonial manner
!!!PDT:	1932
!!!OTL: No_7_Song_with_Lacrosse_Game.krn
!!!REG: Wisconsin
!!!LANG: Non-Tone
!!!LING_GROUP: Algonquin
**kern
*staff1
=1-
*clefF4
*k[f#]
*M3/4
12c\L
12c\
12B\J
4B\
12c\L
12c\
12B\J
=2||
*M2/4
2B\
=3||
*M3/4
8.A\L
16G\Jk
8.G\L
16F#\Jk
4E\
=4||
*M2/4
2F#\
=5||
*M3/4
8.F#\L
16E\Jk
8.E\L
16D\Jk
8C#/
8r
=6||
*M2/4
2E\
=7||
*M3/4
8.E\L
16D\Jk
8.C/L
16BB/Jk
4BB/
=8
2BB/
8BB/
8r
=9
12F#\L
12F#\
12F#\J
4F#\
12G\L
12G\
12G\J
=10||
*M2/4
2F#\
=11||
*M3/4
8.F#\L
16E\Jk
8.E\L
16D\Jk
8C/
8r
=12||
*M2/4
2F#\
=13||
*M3/4
8.F#\L
16E\Jk
8.E\L
16D\Jk
4C/
=14||
*M2/4
2E\
=15||
*M3/4
8.E\L
16D\Jk
8.C/L
16BB/Jk
4BB/
=16
2.BB/
==
*-
